public/assets/icons/svg/stat/artifact-control.svg

<svg fill="none" height="24" viewBox="0 0 24 24" width="24" xmlns="http://www.w3.org/2000/svg"><g fill="#ffc107" stroke="#4f4f4f" transform="matrix(.8641243 0 0 .8641243 .071166 .031949)"><path d="m15.8178 5.44199c-.0133.01496-.0242.02628-.0327.03473-.8172-.08313-1.4539.13501-1.9424.54698-.4745.40025-.7704.95166-.9854 1.4559l-1.0256 2.40583c-.215.50427-.4079 1.09957-.3681 1.71907.0409.6377.3245 1.2481.9503 1.7802-.0002.012-.0009.0277-.0025.0476-.0054.0685-.0187.1484-.0381.2639l-.0002.001c-.0181.1072-.0404.2398-.0533.3796-.0261.284-.0178.6378.1541.9983.1545.3241.4188.6071.809.8459-.0006.0054-.0013.0111-.002.0171-.0097.0763-.0259.1627-.0469.2749-.0025.0136-.0052.0277-.0079.0422-.0235.1259-.0504.2744-.0684.4307-.0356.3092-.0426.6935.1035 1.0738.1525.3968.4513.7374.9308.9842l.4522.2327.225-.456c.4024-.8153.6821-1.4394 1.1243-2.5726l.0392-.1005-.0057-.1078-.1938-3.646 6.818 2.3235c-.0702.1014-.1573.2038-.2611.3066-.2449.2427-.5576.4627-.8838.6525-.6545.3806-1.2989.6023-1.3846.6283l-1.1722.3563 1.0868.5657c.4359.2269.7486.3502 1.0396.4552.0636.0229.1246.0444.1845.0656.2135.0754.4138.1461.6718.2587l.1532.0668.1625-.0387c.7673-.1825 1.7148-.6501 2.5185-1.1734.4062-.2644.789-.5517 1.1054-.8378.3084-.279.5851-.5847.7426-.8903l.0168-.0325.0119-.0347c.1111-.3244.1415-.7378.1312-1.157-.0106-.43-.0657-.9104-.1536-1.3922-.1736-.9524-.487-1.9735-.8882-2.65613l-.0846-.14401-.1542-.06422c-.2599-.10823-.4496-.20379-.6518-.30562-.0568-.02858-.1145-.05766-.1751-.08765-.2772-.13732-.5827-.27746-1.0483-.43489l-1.1606-.39244.5546 1.09244c.0405.07984.3268.69831.5053 1.43412.089.3667.1468.7446.1413 1.0894-.0024.1461-.016.2798-.0405.4006l-6.3973-3.31025 2.7647-2.38479.0818-.07049.0453-.09792c.5114-1.10365.7681-1.73758 1.0777-2.59246l.1732-.4781-.481-.16508c-.5101-.17511-.9628-.15484-1.3546.00992-.3756.15791-.648.42909-.8464.66884-.1003.12123-.1888.24342-.2634.34758-.0086.01198-.0169.02362-.025.03494-.0664.0928-.1175.16429-.1659.22415-.0038.00468-.0074.0091-.0109.0133-.4425-.11622-.8296-.11095-1.1705.002-.3791.12559-.6401.36457-.8269.58007-.092.10613-.1722.21406-.2371.30133l-.0006.00079c-.0698.09403-.1183.15886-.1639.21026zm-3.4055 7.90881c.0001 0 .0003.0009.0005.0029-.0004-.0018-.0005-.0028-.0005-.0029zm3.3497-7.8534c-.0016.00124-.0024.00172-.0024.00165s.0008-.00069.0024-.00165z"/><path d="m1.18945 22.5864-.198314.467.469924.1915 2.89793 1.1804.46992.1914.18449-.4727 6.3487-16.26674.1792-.45898-.4563-.18587-2.42212-.98661-.4563-.18587-.19256.45351z"/></g></svg>

<svg width="31" height="26" viewBox="0 0 31 26" fill="none" xmlns="http://www.w3.org/2000/svg">
<path d="M15.8178 5.44199C15.8045 5.45695 15.7936 5.46827 15.7851 5.47672C14.9679 5.39359 14.3312 5.61173 13.8427 6.0237C13.3682 6.42395 13.0723 6.97536 12.8573 7.4796L11.8317 9.88543C11.6167 10.3897 11.4238 10.985 11.4636 11.6045C11.5045 12.2422 11.7881 12.8526 12.4139 13.3847C12.4137 13.3967 12.413 13.4124 12.4114 13.4323C12.406 13.5008 12.3927 13.5807 12.3733 13.6962L12.3731 13.6972C12.355 13.8044 12.3327 13.937 12.3198 14.0768C12.2937 14.3608 12.302 14.7146 12.4739 15.0751C12.6284 15.3992 12.8927 15.6822 13.2829 15.921C13.2823 15.9264 13.2816 15.9321 13.2809 15.9381C13.2712 16.0144 13.255 16.1008 13.234 16.213C13.2315 16.2266 13.2288 16.2407 13.2261 16.2552C13.2026 16.3811 13.1757 16.5296 13.1577 16.6859C13.1221 16.9951 13.1151 17.3794 13.2612 17.7597C13.4137 18.1565 13.7125 18.4971 14.192 18.7439L14.6442 18.9766L14.8692 18.5206C15.2716 17.7053 15.5513 17.0812 15.9935 15.948L16.0327 15.8475L16.027 15.7397L15.8332 12.0937L22.6512 14.4172C22.581 14.5186 22.4939 14.621 22.3901 14.7238C22.1452 14.9665 21.8325 15.1865 21.5063 15.3763C20.8518 15.7569 20.2074 15.9786 20.1217 16.0046L18.9495 16.3609L20.0363 16.9266C20.4722 17.1535 20.7849 17.2768 21.0759 17.3818C21.1395 17.4047 21.2005 17.4262 21.2604 17.4474C21.4739 17.5228 21.6742 17.5935 21.9322 17.7061L22.0854 17.7729L22.2479 17.7342C23.0152 17.5517 23.9627 17.0841 24.7664 16.5608C25.1726 16.2964 25.5554 16.0091 25.8718 15.723C26.1802 15.444 26.4569 15.1383 26.6144 14.8327L26.6312 14.8002L26.6431 14.7655C26.7542 14.4411 26.7846 14.0277 26.7743 13.6085C26.7637 13.1785 26.7086 12.6981 26.6207 12.2163C26.4471 11.2639 26.1337 10.2428 25.7325 9.56017L25.6479 9.41616L25.4937 9.35194C25.2338 9.24371 25.0441 9.14815 24.8419 9.04632C24.7851 9.01774 24.7274 8.98866 24.6668 8.95867C24.3896 8.82135 24.0841 8.68121 23.6185 8.52378L22.4579 8.13134L23.0125 9.22378C23.053 9.30362 23.3393 9.92209 23.5178 10.6579C23.6068 11.0246 23.6646 11.4025 23.6591 11.7473C23.6567 11.8934 23.6431 12.0271 23.6186 12.1479L17.2213 8.83765L19.986 6.45286L20.0678 6.38237L20.1131 6.28445C20.6245 5.1808 20.8812 4.54687 21.1908 3.69199L21.364 3.21389L20.883 3.04881C20.3729 2.8737 19.9202 2.89397 19.5284 3.05873C19.1528 3.21664 18.8804 3.48782 18.682 3.72757C18.5817 3.8488 18.4932 3.97099 18.4186 4.07515C18.41 4.08713 18.4017 4.09877 18.3936 4.11009C18.3272 4.20289 18.2761 4.27438 18.2277 4.33424C18.2239 4.33892 18.2203 4.34334 18.2168 4.34754C17.7743 4.23132 17.3872 4.23659 17.0463 4.34954C16.6672 4.47513 16.4062 4.71411 16.2194 4.92961C16.1274 5.03574 16.0472 5.14367 15.9823 5.23094L15.9817 5.23173C15.9119 5.32576 15.8634 5.39059 15.8178 5.44199ZM12.4123 13.3508C12.4124 13.3508 12.4126 13.3517 12.4128 13.3537C12.4124 13.3519 12.4123 13.3509 12.4123 13.3508ZM15.762 5.4974C15.7604 5.49864 15.7596 5.49912 15.7596 5.49905C15.7596 5.49898 15.7604 5.49836 15.762 5.4974Z" fill="#FFC107" stroke="#4F4F4F"/>
<path d="M1.18945 22.5864L0.991136 23.0534L1.46106 23.2449L4.35899 24.4253L4.82891 24.6167L5.0134 24.144L11.3621 7.87726L11.5413 7.41828L11.085 7.23241L8.66288 6.2458L8.20658 6.05993L8.01402 6.51344L1.18945 22.5864Z" fill="#FFC107" stroke="#4F4F4F"/>
</svg>
